X:1
T: The Peeler's away with my Daughter
C:
R:Jig
Q:180
K:G
M:6/8
L:1/16
|:gf|e2A2A2 A2B2d2|e2d2e2 g4e2|d2B2G2 G2A2G2|B2G2B2 d2g2f2|
e2A2A2 A2B2d2|e2d2e2 g4a2|g4e2 d2B2G2|A2B2A2 G4:|
|:B2|e2a2a2 a2g2e2|a2g2a2 b4a2|g2a2g2 g2d2B2|g2a2g2 g2a2b2|
a2b2a2 a2g2e2|a2g2a2 b4a2|g4e2 d2B2G2|A2B2A2 G4:|
